icons/op-headline1-24.svg

<svg width="24" height="24" viewBox="0 0 24 24" fill="none" xmlns="http://www.w3.org/2000/svg">
<path d="M4 17V7.03247H5.28125V11.4805H10.4688V7.03247H11.75V17H10.4688V12.4545H5.28125V17H4ZM14.3125 9.56494L17.1562 7H18.125V16.026H20V17H14.875V16.026H16.9375V9.24026V8.62338L15.2188 10.1494C15.1875 10.1818 15.1562 10.2143 15.0938 10.2468H14.9688C14.9062 10.2468 14.8438 10.2468 14.7812 10.2143C14.75 10.1818 14.6875 10.1494 14.6562 10.1169L14.3125 9.56494Z" fill="black"/>
</svg>

<svg xmlns="http://www.w3.org/2000/svg" width="24" height="24" viewBox="0 0 24 24"><path d="M4 17V7.032h1.281v4.448h5.188V7.032h1.281V17h-1.281v-4.546H5.281V17H4Zm10.312-7.435L17.156 7h.969v9.026H20V17h-5.125v-.974h2.063V8.623l-1.719 1.526a.438.438 0 0 1-.125.098h-.125c-.063 0-.125 0-.188-.033-.031-.032-.093-.065-.125-.097l-.344-.552Z"/></svg>
